Newaita-dark/apps/32/preferences-plugin.svg

<svg height="32" viewBox="0 0 32 32" width="32" xmlns="http://www.w3.org/2000/svg" xmlns:xlink="http://www.w3.org/1999/xlink"><linearGradient id="a"><stop offset="0" stop-opacity=".27451"/><stop offset="1" stop-opacity="0"/></linearGradient><linearGradient id="b" gradientTransform="matrix(.0140639 0 0 .062506 3.869899 12.115743)" gradientUnits="userSpaceOnUse" x1="254" x2="254" xlink:href="#a" y1="233.5" y2="254.666672"/><linearGradient id="c"><stop offset="0" stop-opacity=".313726"/><stop offset=".222222" stop-opacity=".27451"/><stop offset="1" stop-opacity="0"/></linearGradient><radialGradient id="d" cx="450.908936" cy="189.579361" gradientTransform="matrix(.00000017 -.0781325 -.140638 -.0000001 35.261855 62.27229)" gradientUnits="userSpaceOnUse" r="21.166656" xlink:href="#c"/><radialGradient id="e" cx="450.908936" cy="189.579361" gradientTransform="matrix(-.00000017 .0781325 .140638 .0000001 -20.377617 -8.850521)" gradientUnits="userSpaceOnUse" r="21.166656" xlink:href="#c"/><radialGradient id="f" cx="450.908936" cy="189.579361" gradientTransform="matrix(-.00000017 -.0781325 .140638 -.0000001 -20.377617 62.27229)" gradientUnits="userSpaceOnUse" r="21.166656" xlink:href="#c"/><radialGradient id="g" cx="450.908936" cy="189.579361" gradientTransform="matrix(.00000017 .0781325 -.140638 .0000001 35.261851 -8.850522)" gradientUnits="userSpaceOnUse" r="21.166656" xlink:href="#c"/><linearGradient id="h" gradientTransform="matrix(.0140639 0 0 .062506 14.454246 12.115743)" gradientUnits="userSpaceOnUse" x1="254" x2="254" xlink:href="#a" y1="233.5" y2="254.666672"/><radialGradient id="i" cx="450.908936" cy="189.579361" gradientTransform="matrix(.00000017 -.0781325 -.140638 -.0000001 45.846201 62.27229)" gradientUnits="userSpaceOnUse" r="21.166656" xlink:href="#c"/><radialGradient id="j" cx="450.908936" cy="189.579361" gradientTransform="matrix(-.00000017 .0781325 .140638 .0000001 -9.793271 -8.850521)" gradientUnits="userSpaceOnUse" r="21.166656" xlink:href="#c"/><radialGradient id="k" cx="450.908936" cy="189.579361" gradientTransform="matrix(-.00000017 -.0781325 .140638 -.0000001 -9.793271 62.27229)" gradientUnits="userSpaceOnUse" r="21.166656" xlink:href="#c"/><radialGradient id="l" cx="450.908936" cy="189.579361" gradientTransform="matrix(.00000017 .0781325 -.140638 .0000001 45.846197 -8.850522)" gradientUnits="userSpaceOnUse" r="21.166656" xlink:href="#c"/><linearGradient id="m" gradientUnits="userSpaceOnUse" x1="12.56888" x2="12.56888" y1="26.71082419623" y2="2.89610370009"><stop offset="0" stop-color="#5c6bc0"/><stop offset="1" stop-color="#7986cb"/></linearGradient><path d="m5.953125 26.710938h2.976563v1.324218h-2.976563zm0 0" fill="url(#b)"/><path d="m8.929688 26.710938h2.648437v-1.324219h-2.648437zm0 0" fill="url(#d)"/><path d="m5.953125 26.710938h-2.644531v1.324218h2.644531zm0 0" fill="url(#e)"/><path d="m5.953125 26.710938h-2.644531v-1.324219h2.644531zm0 0" fill="url(#f)"/><path d="m8.929688 26.710938h2.648437v1.324218h-2.648437zm0 0" fill="url(#g)"/><path d="m16.539062 26.710938h2.976563v1.324218h-2.976563zm0 0" fill="url(#h)"/><path d="m19.515625 26.710938h2.644531v-1.324219h-2.644531zm0 0" fill="url(#i)"/><path d="m16.539062 26.710938h-2.648437v1.324218h2.648437zm0 0" fill="url(#j)"/><path d="m16.539062 26.710938h-2.648437v-1.324219h2.648437zm0 0" fill="url(#k)"/><path d="m19.515625 26.710938h2.644531v1.324218h-2.644531zm0 0" fill="url(#l)"/><path d="m12.570312 2.894531c-1.832031 0-3.308593 1.476563-3.308593 3.308594 0 1.085937.519531 2.046875 1.324219 2.648437v.660157h-5.957032c-.363281 0-.660156.292969-.660156.660156v5.953125h.65625c.605469-.804688 1.566406-1.320312 2.652344-1.320312 1.832031 0 3.308594 1.472656 3.308594 3.304687 0 1.835937-1.476563 3.308594-3.308594 3.308594-1.085938 0-2.046875-.519531-2.652344-1.324219h-.65625v5.957031c0 .363281.296875.660157.660156.660157h5.957032v-.65625c-.804688-.605469-1.324219-1.566407-1.324219-2.652344 0-1.832032 1.476562-3.308594 3.308593-3.308594 1.832032 0 3.304688 1.476562 3.304688 3.308594 0 1.085937-.515625 2.046875-1.320312 2.652344v.65625h5.953124c.367188 0 .660157-.296876.660157-.660157v-5.957031h.660156c.601563.804688 1.5625 1.324219 2.648437 1.324219 1.832032 0 3.308594-1.472657 3.308594-3.308594 0-1.832031-1.476562-3.304687-3.308594-3.304687-1.085937 0-2.046874.515624-2.648437 1.320312h-.660156v-5.953125c0-.367187-.292969-.660156-.660157-.660156h-5.953124v-.660157c.804687-.601562 1.320312-1.5625 1.320312-2.648437 0-1.832031-1.472656-3.308594-3.304688-3.308594zm0 0" fill="url(#m)"/><path d="m12.570312 2.894531c-1.832031 0-3.308593 1.476563-3.308593 3.308594 0 .082031.003906.164063.007812.246094.128907-1.714844 1.550781-3.058594 3.300781-3.058594 1.746094 0 3.167969 1.34375 3.296876 3.058594.007812-.082031.007812-.164063.007812-.246094 0-1.832031-1.472656-3.308594-3.304688-3.308594zm-7.941406 6.617188c-.363281 0-.660156.292969-.660156.660156v.496094c0-.367188.296875-.660157.660156-.660157h5.957032v-.496093zm9.925782 0v.496093h5.953124c.367188 0 .660157.292969.660157.660157v-.496094c0-.367187-.292969-.660156-.660157-.660156zm9.921874 5.292969c-1.085937 0-2.046874.515624-2.648437 1.320312h-.660156v.496094h.660156c.601563-.804688 1.5625-1.320313 2.648437-1.320313 1.75 0 3.171876 1.34375 3.296876 3.058594.007812-.082031.011718-.164063.011718-.25 0-1.832031-1.476562-3.304687-3.308594-3.304687zm-13.902343 3.554687c-.125 1.714844-1.546875 3.058594-3.296875 3.058594-1.085938 0-2.046875-.519531-2.652344-1.324219h-.65625v.496094h.65625c.605469.804687 1.566406 1.324218 2.652344 1.324218 1.832031 0 3.308594-1.472656 3.308594-3.308593 0-.082031-.003907-.164063-.011719-.246094zm-1.304688 5.289063c-.003906.082031-.007812.167968-.007812.25 0 1.085937.519531 2.046874 1.324219 2.652343v-.496093c-.746094-.558594-1.242188-1.421876-1.316407-2.40625zm6.597657 0c-.070313.984374-.570313 1.847656-1.3125 2.40625v.496093c.804687-.605469 1.320312-1.566406 1.320312-2.652343 0-.082032 0-.167969-.007812-.25zm0 0" fill="#fff" fill-opacity=".392157"/><path d="m9.269531 5.953125c-.003906.082031-.007812.167969-.007812.25 0 1.085937.519531 2.046875 1.324219 2.648437v-.496093c-.746094-.554688-1.242188-1.417969-1.316407-2.402344zm6.597657 0c-.070313.984375-.570313 1.847656-1.3125 2.402344v.496093c.804687-.601562 1.320312-1.5625 1.320312-2.648437 0-.082031 0-.167969-.007812-.25zm-8.589844 8.355469c-1.085938 0-2.046875.515625-2.652344 1.320312h-.65625v.496094h.65625c.605469-.804688 1.566406-1.320312 2.652344-1.320312 1.75 0 3.171875 1.34375 3.296875 3.058593.007812-.082031.011719-.164062.011719-.25 0-1.832031-1.476563-3.304687-3.308594-3.304687zm20.496094 3.554687c-.125 1.714844-1.546876 3.058594-3.296876 3.058594-1.085937 0-2.046874-.519531-2.648437-1.324219h-.660156v.496094h.660156c.601563.804688 1.5625 1.324219 2.648437 1.324219 1.832032 0 3.308594-1.472657 3.308594-3.308594 0-.082031-.003906-.164063-.011718-.246094zm-15.203126 1.734375c-1.832031 0-3.308593 1.476563-3.308593 3.308594 0 .082031.003906.164062.007812.246094.128907-1.714844 1.550781-3.058594 3.300781-3.058594 1.746094 0 3.167969 1.34375 3.296876 3.058594.007812-.082032.007812-.164063.007812-.246094 0-1.832031-1.472656-3.308594-3.304688-3.308594zm-8.601562 5.957032v.496093c0 .363281.296875.660157.660156.660157h5.957032v-.496094h-5.957032c-.363281 0-.660156-.296875-.660156-.660156zm17.199219 0c0 .363281-.292969.660156-.660157.660156h-5.953124v.496094h5.953124c.367188 0 .660157-.296876.660157-.660157zm0 0" fill-opacity=".235294"/><path d="m760.084936 175.022665c-110.776829 0-200.059646 89.282818-200.059646 200.059646 0 65.663025 31.414324 123.767715 80.071098 160.142196v39.91745h-360.201842c-21.966407 0-39.91745 17.714845-39.91745 39.91745v359.965644h39.681252c36.610679-48.656773 94.71537-79.8349 160.378394-79.8349 110.776829 0 200.059646 89.046619 200.059646 199.823448 0 111.013027-89.282817 200.059646-200.059646 200.059646-65.663024 0-123.767715-31.414324-160.378394-80.071098h-39.681252v360.201842c0 21.966407 17.951043 39.91745 39.91745 39.91745h360.201842v-39.681252c-48.656774-36.610679-80.071098-94.71537-80.071098-160.378394 0-110.776829 89.282817-200.059646 200.059646-200.059646s199.823448 89.282817 199.823448 200.059646c0 65.663024-31.178127 123.767715-79.8349 160.378394v39.681252h359.965644c22.202605 0 39.91745-17.951043 39.91745-39.91745v-360.201842h39.91745c36.374481 48.656774 94.479171 80.071098 160.142196 80.071098 110.776828 0 200.059646-89.046619 200.059646-200.059646 0-110.776829-89.282818-199.823448-200.059646-199.823448-65.663025 0-123.767715 31.178127-160.142196 79.8349h-39.91745v-359.965644c0-22.202605-17.714845-39.91745-39.91745-39.91745h-359.965644v-39.91745c48.656773-36.374481 79.8349-94.479171 79.8349-160.142196 0-110.776828-89.046619-200.059646-199.823448-200.059646zm0 0" fill="none" stroke="#212121" stroke-linecap="round" stroke-linejoin="round" stroke-width="11.338583" transform="scale(.016538)"/></svg>

<?xml version="1.0" encoding="UTF-8"?>
<svg xmlns="http://www.w3.org/2000/svg" xmlns:xlink="http://www.w3.org/1999/xlink" width="32px" height="32px" viewBox="0 0 32 32" version="1.1">
<defs>
<linearGradient id="linear0" gradientUnits="userSpaceOnUse" x1="254" y1="233.5" x2="254" y2="254.666672" gradientTransform="matrix(0.0140639,0,0,0.062506,3.869899,12.115743)">
<stop offset="0" style="stop-color:rgb(0%,0%,0%);stop-opacity:0.27451;"/>
<stop offset="1" style="stop-color:rgb(0%,0%,0%);stop-opacity:0;"/>
</linearGradient>
<radialGradient id="radial0" gradientUnits="userSpaceOnUse" cx="450.908936" cy="189.579361" fx="450.908936" fy="189.579361" r="21.166656" gradientTransform="matrix(0.00000017417,-0.0781325,-0.140638,-0.000000101539,35.261855,62.27229)">
<stop offset="0" style="stop-color:rgb(0%,0%,0%);stop-opacity:0.313726;"/>
<stop offset="0.222222" style="stop-color:rgb(0%,0%,0%);stop-opacity:0.27451;"/>
<stop offset="1" style="stop-color:rgb(0%,0%,0%);stop-opacity:0;"/>
</radialGradient>
<radialGradient id="radial1" gradientUnits="userSpaceOnUse" cx="450.908936" cy="189.579361" fx="450.908936" fy="189.579361" r="21.166656" gradientTransform="matrix(-0.00000017417,0.0781325,0.140638,0.000000101539,-20.377617,-8.850521)">
<stop offset="0" style="stop-color:rgb(0%,0%,0%);stop-opacity:0.313726;"/>
<stop offset="0.222222" style="stop-color:rgb(0%,0%,0%);stop-opacity:0.27451;"/>
<stop offset="1" style="stop-color:rgb(0%,0%,0%);stop-opacity:0;"/>
</radialGradient>
<radialGradient id="radial2" gradientUnits="userSpaceOnUse" cx="450.908936" cy="189.579361" fx="450.908936" fy="189.579361" r="21.166656" gradientTransform="matrix(-0.00000017417,-0.0781325,0.140638,-0.000000101539,-20.377617,62.27229)">
<stop offset="0" style="stop-color:rgb(0%,0%,0%);stop-opacity:0.313726;"/>
<stop offset="0.222222" style="stop-color:rgb(0%,0%,0%);stop-opacity:0.27451;"/>
<stop offset="1" style="stop-color:rgb(0%,0%,0%);stop-opacity:0;"/>
</radialGradient>
<radialGradient id="radial3" gradientUnits="userSpaceOnUse" cx="450.908936" cy="189.579361" fx="450.908936" fy="189.579361" r="21.166656" gradientTransform="matrix(0.00000017417,0.0781325,-0.140638,0.000000101539,35.261851,-8.850522)">
<stop offset="0" style="stop-color:rgb(0%,0%,0%);stop-opacity:0.313726;"/>
<stop offset="0.222222" style="stop-color:rgb(0%,0%,0%);stop-opacity:0.27451;"/>
<stop offset="1" style="stop-color:rgb(0%,0%,0%);stop-opacity:0;"/>
</radialGradient>
<linearGradient id="linear1" gradientUnits="userSpaceOnUse" x1="254" y1="233.5" x2="254" y2="254.666672" gradientTransform="matrix(0.0140639,0,0,0.062506,14.454246,12.115743)">
<stop offset="0" style="stop-color:rgb(0%,0%,0%);stop-opacity:0.27451;"/>
<stop offset="1" style="stop-color:rgb(0%,0%,0%);stop-opacity:0;"/>
</linearGradient>
<radialGradient id="radial4" gradientUnits="userSpaceOnUse" cx="450.908936" cy="189.579361" fx="450.908936" fy="189.579361" r="21.166656" gradientTransform="matrix(0.00000017417,-0.0781325,-0.140638,-0.000000101539,45.846201,62.27229)">
<stop offset="0" style="stop-color:rgb(0%,0%,0%);stop-opacity:0.313726;"/>
<stop offset="0.222222" style="stop-color:rgb(0%,0%,0%);stop-opacity:0.27451;"/>
<stop offset="1" style="stop-color:rgb(0%,0%,0%);stop-opacity:0;"/>
</radialGradient>
<radialGradient id="radial5" gradientUnits="userSpaceOnUse" cx="450.908936" cy="189.579361" fx="450.908936" fy="189.579361" r="21.166656" gradientTransform="matrix(-0.00000017417,0.0781325,0.140638,0.000000101539,-9.793271,-8.850521)">
<stop offset="0" style="stop-color:rgb(0%,0%,0%);stop-opacity:0.313726;"/>
<stop offset="0.222222" style="stop-color:rgb(0%,0%,0%);stop-opacity:0.27451;"/>
<stop offset="1" style="stop-color:rgb(0%,0%,0%);stop-opacity:0;"/>
</radialGradient>
<radialGradient id="radial6" gradientUnits="userSpaceOnUse" cx="450.908936" cy="189.579361" fx="450.908936" fy="189.579361" r="21.166656" gradientTransform="matrix(-0.00000017417,-0.0781325,0.140638,-0.000000101539,-9.793271,62.27229)">
<stop offset="0" style="stop-color:rgb(0%,0%,0%);stop-opacity:0.313726;"/>
<stop offset="0.222222" style="stop-color:rgb(0%,0%,0%);stop-opacity:0.27451;"/>
<stop offset="1" style="stop-color:rgb(0%,0%,0%);stop-opacity:0;"/>
</radialGradient>
<radialGradient id="radial7" gradientUnits="userSpaceOnUse" cx="450.908936" cy="189.579361" fx="450.908936" fy="189.579361" r="21.166656" gradientTransform="matrix(0.00000017417,0.0781325,-0.140638,0.000000101539,45.846197,-8.850522)">
<stop offset="0" style="stop-color:rgb(0%,0%,0%);stop-opacity:0.313726;"/>
<stop offset="0.222222" style="stop-color:rgb(0%,0%,0%);stop-opacity:0.27451;"/>
<stop offset="1" style="stop-color:rgb(0%,0%,0%);stop-opacity:0;"/>
</radialGradient>
<linearGradient id="linear2" gradientUnits="userSpaceOnUse" x1="760" y1="1615.118164" x2="760" y2="175.118134" gradientTransform="matrix(0.016538,0,0,0.016538,0,0)">
<stop offset="0" style="stop-color:rgb(36.078432%,41.960785%,75.294119%);stop-opacity:1;"/>
<stop offset="1" style="stop-color:rgb(47.450981%,52.549022%,79.607844%);stop-opacity:1;"/>
</linearGradient>
</defs>
<g id="surface1">
<path style=" stroke:none;fill-rule:nonzero;fill:url(#linear0);" d="M 5.953125 26.710938 L 8.929688 26.710938 L 8.929688 28.035156 L 5.953125 28.035156 Z M 5.953125 26.710938 "/>
<path style=" stroke:none;fill-rule:nonzero;fill:url(#radial0);" d="M 8.929688 26.710938 L 11.578125 26.710938 L 11.578125 25.386719 L 8.929688 25.386719 Z M 8.929688 26.710938 "/>
<path style=" stroke:none;fill-rule:nonzero;fill:url(#radial1);" d="M 5.953125 26.710938 L 3.308594 26.710938 L 3.308594 28.035156 L 5.953125 28.035156 Z M 5.953125 26.710938 "/>
<path style=" stroke:none;fill-rule:nonzero;fill:url(#radial2);" d="M 5.953125 26.710938 L 3.308594 26.710938 L 3.308594 25.386719 L 5.953125 25.386719 Z M 5.953125 26.710938 "/>
<path style=" stroke:none;fill-rule:nonzero;fill:url(#radial3);" d="M 8.929688 26.710938 L 11.578125 26.710938 L 11.578125 28.035156 L 8.929688 28.035156 Z M 8.929688 26.710938 "/>
<path style=" stroke:none;fill-rule:nonzero;fill:url(#linear1);" d="M 16.539062 26.710938 L 19.515625 26.710938 L 19.515625 28.035156 L 16.539062 28.035156 Z M 16.539062 26.710938 "/>
<path style=" stroke:none;fill-rule:nonzero;fill:url(#radial4);" d="M 19.515625 26.710938 L 22.160156 26.710938 L 22.160156 25.386719 L 19.515625 25.386719 Z M 19.515625 26.710938 "/>
<path style=" stroke:none;fill-rule:nonzero;fill:url(#radial5);" d="M 16.539062 26.710938 L 13.890625 26.710938 L 13.890625 28.035156 L 16.539062 28.035156 Z M 16.539062 26.710938 "/>
<path style=" stroke:none;fill-rule:nonzero;fill:url(#radial6);" d="M 16.539062 26.710938 L 13.890625 26.710938 L 13.890625 25.386719 L 16.539062 25.386719 Z M 16.539062 26.710938 "/>
<path style=" stroke:none;fill-rule:nonzero;fill:url(#radial7);" d="M 19.515625 26.710938 L 22.160156 26.710938 L 22.160156 28.035156 L 19.515625 28.035156 Z M 19.515625 26.710938 "/>
<path style=" stroke:none;fill-rule:nonzero;fill:url(#linear2);" d="M 12.570312 2.894531 C 10.738281 2.894531 9.261719 4.371094 9.261719 6.203125 C 9.261719 7.289062 9.78125 8.25 10.585938 8.851562 L 10.585938 9.511719 L 4.628906 9.511719 C 4.265625 9.511719 3.96875 9.804688 3.96875 10.171875 L 3.96875 16.125 L 4.625 16.125 C 5.230469 15.320312 6.191406 14.804688 7.277344 14.804688 C 9.109375 14.804688 10.585938 16.277344 10.585938 18.109375 C 10.585938 19.945312 9.109375 21.417969 7.277344 21.417969 C 6.191406 21.417969 5.230469 20.898438 4.625 20.09375 L 3.96875 20.09375 L 3.96875 26.050781 C 3.96875 26.414062 4.265625 26.710938 4.628906 26.710938 L 10.585938 26.710938 L 10.585938 26.054688 C 9.78125 25.449219 9.261719 24.488281 9.261719 23.402344 C 9.261719 21.570312 10.738281 20.09375 12.570312 20.09375 C 14.402344 20.09375 15.875 21.570312 15.875 23.402344 C 15.875 24.488281 15.359375 25.449219 14.554688 26.054688 L 14.554688 26.710938 L 20.507812 26.710938 C 20.875 26.710938 21.167969 26.414062 21.167969 26.050781 L 21.167969 20.09375 L 21.828125 20.09375 C 22.429688 20.898438 23.390625 21.417969 24.476562 21.417969 C 26.308594 21.417969 27.785156 19.945312 27.785156 18.109375 C 27.785156 16.277344 26.308594 14.804688 24.476562 14.804688 C 23.390625 14.804688 22.429688 15.320312 21.828125 16.125 L 21.167969 16.125 L 21.167969 10.171875 C 21.167969 9.804688 20.875 9.511719 20.507812 9.511719 L 14.554688 9.511719 L 14.554688 8.851562 C 15.359375 8.25 15.875 7.289062 15.875 6.203125 C 15.875 4.371094 14.402344 2.894531 12.570312 2.894531 Z M 12.570312 2.894531 "/>
<path style=" stroke:none;fill-rule:nonzero;fill:rgb(100%,100%,100%);fill-opacity:0.392157;" d="M 12.570312 2.894531 C 10.738281 2.894531 9.261719 4.371094 9.261719 6.203125 C 9.261719 6.285156 9.265625 6.367188 9.269531 6.449219 C 9.398438 4.734375 10.820312 3.390625 12.570312 3.390625 C 14.316406 3.390625 15.738281 4.734375 15.867188 6.449219 C 15.875 6.367188 15.875 6.285156 15.875 6.203125 C 15.875 4.371094 14.402344 2.894531 12.570312 2.894531 Z M 4.628906 9.511719 C 4.265625 9.511719 3.96875 9.804688 3.96875 10.171875 L 3.96875 10.667969 C 3.96875 10.300781 4.265625 10.007812 4.628906 10.007812 L 10.585938 10.007812 L 10.585938 9.511719 Z M 14.554688 9.511719 L 14.554688 10.007812 L 20.507812 10.007812 C 20.875 10.007812 21.167969 10.300781 21.167969 10.667969 L 21.167969 10.171875 C 21.167969 9.804688 20.875 9.511719 20.507812 9.511719 Z M 24.476562 14.804688 C 23.390625 14.804688 22.429688 15.320312 21.828125 16.125 L 21.167969 16.125 L 21.167969 16.621094 L 21.828125 16.621094 C 22.429688 15.816406 23.390625 15.300781 24.476562 15.300781 C 26.226562 15.300781 27.648438 16.644531 27.773438 18.359375 C 27.78125 18.277344 27.785156 18.195312 27.785156 18.109375 C 27.785156 16.277344 26.308594 14.804688 24.476562 14.804688 Z M 10.574219 18.359375 C 10.449219 20.074219 9.027344 21.417969 7.277344 21.417969 C 6.191406 21.417969 5.230469 20.898438 4.625 20.09375 L 3.96875 20.09375 L 3.96875 20.589844 L 4.625 20.589844 C 5.230469 21.394531 6.191406 21.914062 7.277344 21.914062 C 9.109375 21.914062 10.585938 20.441406 10.585938 18.605469 C 10.585938 18.523438 10.582031 18.441406 10.574219 18.359375 Z M 9.269531 23.648438 C 9.265625 23.730469 9.261719 23.816406 9.261719 23.898438 C 9.261719 24.984375 9.78125 25.945312 10.585938 26.550781 L 10.585938 26.054688 C 9.839844 25.496094 9.34375 24.632812 9.269531 23.648438 Z M 15.867188 23.648438 C 15.796875 24.632812 15.296875 25.496094 14.554688 26.054688 L 14.554688 26.550781 C 15.359375 25.945312 15.875 24.984375 15.875 23.898438 C 15.875 23.816406 15.875 23.730469 15.867188 23.648438 Z M 15.867188 23.648438 "/>
<path style=" stroke:none;fill-rule:nonzero;fill:rgb(0%,0%,0%);fill-opacity:0.235294;" d="M 9.269531 5.953125 C 9.265625 6.035156 9.261719 6.121094 9.261719 6.203125 C 9.261719 7.289062 9.78125 8.25 10.585938 8.851562 L 10.585938 8.355469 C 9.839844 7.800781 9.34375 6.9375 9.269531 5.953125 Z M 15.867188 5.953125 C 15.796875 6.9375 15.296875 7.800781 14.554688 8.355469 L 14.554688 8.851562 C 15.359375 8.25 15.875 7.289062 15.875 6.203125 C 15.875 6.121094 15.875 6.035156 15.867188 5.953125 Z M 7.277344 14.308594 C 6.191406 14.308594 5.230469 14.824219 4.625 15.628906 L 3.96875 15.628906 L 3.96875 16.125 L 4.625 16.125 C 5.230469 15.320312 6.191406 14.804688 7.277344 14.804688 C 9.027344 14.804688 10.449219 16.148438 10.574219 17.863281 C 10.582031 17.78125 10.585938 17.699219 10.585938 17.613281 C 10.585938 15.78125 9.109375 14.308594 7.277344 14.308594 Z M 27.773438 17.863281 C 27.648438 19.578125 26.226562 20.921875 24.476562 20.921875 C 23.390625 20.921875 22.429688 20.402344 21.828125 19.597656 L 21.167969 19.597656 L 21.167969 20.09375 L 21.828125 20.09375 C 22.429688 20.898438 23.390625 21.417969 24.476562 21.417969 C 26.308594 21.417969 27.785156 19.945312 27.785156 18.109375 C 27.785156 18.027344 27.78125 17.945312 27.773438 17.863281 Z M 12.570312 19.597656 C 10.738281 19.597656 9.261719 21.074219 9.261719 22.90625 C 9.261719 22.988281 9.265625 23.070312 9.269531 23.152344 C 9.398438 21.4375 10.820312 20.09375 12.570312 20.09375 C 14.316406 20.09375 15.738281 21.4375 15.867188 23.152344 C 15.875 23.070312 15.875 22.988281 15.875 22.90625 C 15.875 21.074219 14.402344 19.597656 12.570312 19.597656 Z M 3.96875 25.554688 L 3.96875 26.050781 C 3.96875 26.414062 4.265625 26.710938 4.628906 26.710938 L 10.585938 26.710938 L 10.585938 26.214844 L 4.628906 26.214844 C 4.265625 26.214844 3.96875 25.917969 3.96875 25.554688 Z M 21.167969 25.554688 C 21.167969 25.917969 20.875 26.214844 20.507812 26.214844 L 14.554688 26.214844 L 14.554688 26.710938 L 20.507812 26.710938 C 20.875 26.710938 21.167969 26.414062 21.167969 26.050781 Z M 21.167969 25.554688 "/>
<path style="fill:none;stroke-width:11.338583;stroke-linecap:round;stroke-linejoin:round;stroke:rgb(12.941177%,12.941177%,12.941177%);stroke-opacity:1;stroke-miterlimit:4;" d="M 760.084936 175.022665 C 649.308107 175.022665 560.02529 264.305483 560.02529 375.082311 C 560.02529 440.745336 591.439614 498.850026 640.096388 535.224507 L 640.096388 575.141957 L 279.894546 575.141957 C 257.928139 575.141957 239.977096 592.856802 239.977096 615.059407 L 239.977096 975.025051 L 279.658348 975.025051 C 316.269027 926.368278 374.373718 895.190151 440.036742 895.190151 C 550.813571 895.190151 640.096388 984.23677 640.096388 1095.013599 C 640.096388 1206.026626 550.813571 1295.073245 440.036742 1295.073245 C 374.373718 1295.073245 316.269027 1263.658921 279.658348 1215.002147 L 239.977096 1215.002147 L 239.977096 1575.203989 C 239.977096 1597.170396 257.928139 1615.121439 279.894546 1615.121439 L 640.096388 1615.121439 L 640.096388 1575.440187 C 591.439614 1538.829508 560.02529 1480.724817 560.02529 1415.061793 C 560.02529 1304.284964 649.308107 1215.002147 760.084936 1215.002147 C 870.861765 1215.002147 959.908384 1304.284964 959.908384 1415.061793 C 959.908384 1480.724817 928.730257 1538.829508 880.073484 1575.440187 L 880.073484 1615.121439 L 1240.039128 1615.121439 C 1262.241733 1615.121439 1279.956578 1597.170396 1279.956578 1575.203989 L 1279.956578 1215.002147 L 1319.874028 1215.002147 C 1356.248509 1263.658921 1414.353199 1295.073245 1480.016224 1295.073245 C 1590.793052 1295.073245 1680.07587 1206.026626 1680.07587 1095.013599 C 1680.07587 984.23677 1590.793052 895.190151 1480.016224 895.190151 C 1414.353199 895.190151 1356.248509 926.368278 1319.874028 975.025051 L 1279.956578 975.025051 L 1279.956578 615.059407 C 1279.956578 592.856802 1262.241733 575.141957 1240.039128 575.141957 L 880.073484 575.141957 L 880.073484 535.224507 C 928.730257 498.850026 959.908384 440.745336 959.908384 375.082311 C 959.908384 264.305483 870.861765 175.022665 760.084936 175.022665 Z M 760.084936 175.022665 " transform="matrix(0.016538,0,0,0.016538,0,0)"/>
</g>
</svg>
